Numix/16/status/indicator-keyboard-Be-1.svg

<?xml version="1.0" encoding="UTF-8" standalone="no"?>
<svg
   xmlns:dc="http://purl.org/dc/elements/1.1/"
   xmlns:cc="http://creativecommons.org/ns#"
   xmlns:rdf="http://www.w3.org/1999/02/22-rdf-syntax-ns#"
   xmlns:svg="http://www.w3.org/2000/svg"
   xmlns="http://www.w3.org/2000/svg"
   xmlns:sodipodi="http://sodipodi.sourceforge.net/DTD/sodipodi-0.dtd"
   xmlns:inkscape="http://www.inkscape.org/namespaces/inkscape"
   viewBox="0 0 16 16"
   id="svg2"
   version="1.1"
   inkscape:version="0.91 r13725"
   sodipodi:docname="indicator-keyboard-Be-1.svg">
  <metadata
     id="metadata14">
    <rdf:RDF>
      <cc:Work
         rdf:about="">
        <dc:format>image/svg+xml</dc:format>
        <dc:type
           rdf:resource="http://purl.org/dc/dcmitype/StillImage" />
      </cc:Work>
    </rdf:RDF>
  </metadata>
  <defs
     id="defs12" />
  <sodipodi:namedview
     pagecolor="#ffffff"
     bordercolor="#666666"
     borderopacity="1"
     objecttolerance="10"
     gridtolerance="10"
     guidetolerance="10"
     inkscape:pageopacity="0"
     inkscape:pageshadow="2"
     inkscape:window-width="640"
     inkscape:window-height="480"
     id="namedview10"
     showgrid="false"
     inkscape:zoom="14.75"
     inkscape:cx="8"
     inkscape:cy="8"
     inkscape:window-x="65"
     inkscape:window-y="24"
     inkscape:window-maximized="0"
     inkscape:current-layer="svg2" />
  <path
     style="fill:#ececec;fill-opacity:1"
     d="M 1.5996094 0 C 0.71320937 2.9605947e-16 0 0.71320937 0 1.5996094 L 0 14.400391 C 2.9605947e-16 15.286791 0.71320937 16 1.5996094 16 L 14.400391 16 C 15.286791 16 16 15.286791 16 14.400391 L 16 1.5996094 C 16 0.71320937 15.286791 0 14.400391 0 L 1.5996094 0 z M 3.6210938 4.8046875 C 3.9570937 4.8046875 4.2742187 4.8327187 4.5742188 4.8867188 C 4.8802187 4.9407187 5.147 5.03025 5.375 5.15625 C 5.603 5.28225 5.7840156 5.4501562 5.9160156 5.6601562 C 6.0540156 5.8641563 6.1230469 6.1197812 6.1230469 6.4257812 C 6.1230469 6.7617812 6.0353281 7.0490625 5.8613281 7.2890625 C 5.6933281 7.5230625 5.4657344 7.6853906 5.1777344 7.7753906 C 5.3577344 7.8173906 5.5238281 7.8770781 5.6738281 7.9550781 C 5.8238281 8.0330781 5.9543594 8.1357187 6.0683594 8.2617188 C 6.1823594 8.3817188 6.2700781 8.5309375 6.3300781 8.7109375 C 6.3960781 8.8849375 6.4296875 9.0957969 6.4296875 9.3417969 C 6.4296875 9.9297971 6.1945625 10.379406 5.7265625 10.691406 C 5.2585625 10.997406 4.5365938 11.150391 3.5585938 11.150391 C 3.4565937 11.150391 3.3352656 11.144813 3.1972656 11.132812 C 3.0652656 11.126813 2.9272031 11.113703 2.7832031 11.095703 C 2.6452031 11.083703 2.5146719 11.068781 2.3886719 11.050781 C 2.2626719 11.026781 2.1544531 11.002516 2.0644531 10.978516 L 2.0644531 4.9765625 C 2.1724531 4.9465625 2.2918281 4.9222969 2.4238281 4.9042969 C 2.5558281 4.8802969 2.690125 4.8616094 2.828125 4.8496094 C 2.972125 4.8316094 3.1101875 4.8204531 3.2421875 4.8144531 C 3.3801875 4.8084531 3.5070937 4.8046875 3.6210938 4.8046875 z M 3.6210938 5.3261719 C 3.3990937 5.3261719 3.2106875 5.3337031 3.0546875 5.3457031 C 2.9046875 5.3577031 2.7777812 5.372625 2.6757812 5.390625 L 2.6757812 7.5859375 L 3.8632812 7.5859375 C 4.0852812 7.5859375 4.2961406 7.5710156 4.4941406 7.5410156 C 4.6921406 7.5050156 4.8638125 7.4453281 5.0078125 7.3613281 C 5.1578125 7.2713281 5.2734219 7.1537656 5.3574219 7.0097656 C 5.4414219 6.8597656 5.484375 6.6713594 5.484375 6.4433594 C 5.484375 6.2393594 5.4396094 6.0676875 5.3496094 5.9296875 C 5.2596094 5.7856875 5.1289375 5.668125 4.9609375 5.578125 C 4.7989375 5.488125 4.6049531 5.426625 4.3769531 5.390625 C 4.1489531 5.348625 3.8970937 5.3261719 3.6210938 5.3261719 z M 9.4609375 6.3359375 C 10.030937 6.3359375 10.484312 6.5205781 10.820312 6.8925781 C 11.162313 7.2645781 11.332031 7.8373281 11.332031 8.6113281 C 11.332031 8.6593281 11.330219 8.7078594 11.324219 8.7558594 C 11.324219 8.8038594 11.320453 8.848625 11.314453 8.890625 L 8.046875 8.890625 C 8.064875 9.460625 8.2067031 9.8990779 8.4707031 10.205078 C 8.7347031 10.511078 9.1544687 10.664062 9.7304688 10.664062 C 10.048468 10.664062 10.300328 10.634219 10.486328 10.574219 C 10.672328 10.514219 10.808578 10.463875 10.892578 10.421875 L 11 10.925781 C 10.916 10.973781 10.757438 11.029703 10.523438 11.095703 C 10.295438 11.161703 10.02489 11.195312 9.7128906 11.195312 C 9.3048906 11.195312 8.9559688 11.135625 8.6679688 11.015625 C 8.3799687 10.895625 8.1430312 10.727719 7.9570312 10.511719 C 7.7710312 10.295719 7.6367344 10.040094 7.5527344 9.7460938 C 7.4687344 9.4460938 7.4257812 9.119625 7.4257812 8.765625 C 7.4257812 8.357625 7.4836563 8.003125 7.5976562 7.703125 C 7.7176562 7.397125 7.8706406 7.1415 8.0566406 6.9375 C 8.2486406 6.7335 8.4650781 6.5842812 8.7050781 6.4882812 C 8.9510781 6.3862812 9.2029375 6.3359375 9.4609375 6.3359375 z M 9.46875 6.8574219 C 9.25875 6.8574219 9.0703437 6.8984219 8.9023438 6.9824219 C 8.7403438 7.0664219 8.5967031 7.1802188 8.4707031 7.3242188 C 8.3507031 7.4622187 8.2536406 7.6245469 8.1816406 7.8105469 C 8.1156406 7.9965469 8.0784063 8.1924844 8.0664062 8.3964844 L 10.730469 8.3964844 C 10.718469 7.9104844 10.602719 7.5317187 10.386719 7.2617188 C 10.170719 6.9917187 9.8647497 6.8574219 9.46875 6.8574219 z M 2.6757812 8.1074219 L 2.6757812 10.564453 C 2.7657813 10.576453 2.9000781 10.591375 3.0800781 10.609375 C 3.2600781 10.621375 3.4429063 10.628906 3.6289062 10.628906 C 3.9049063 10.628906 4.1736406 10.610219 4.4316406 10.574219 C 4.6956406 10.538219 4.9250469 10.472953 5.1230469 10.376953 C 5.3210469 10.280953 5.4815625 10.148469 5.6015625 9.9804688 C 5.7215625 9.8124687 5.78125 9.5960312 5.78125 9.3320312 C 5.78125 9.0920313 5.7382969 8.8942813 5.6542969 8.7382812 C 5.5702969 8.5762813 5.4509219 8.449375 5.2949219 8.359375 C 5.1389219 8.263375 4.94675 8.1981094 4.71875 8.1621094 C 4.49675 8.1261094 4.2486562 8.1074219 3.9726562 8.1074219 L 2.6757812 8.1074219 z M 13.667969 8.8417969 L 13.935547 8.8417969 L 13.935547 12.896484 L 13.556641 12.896484 L 13.556641 9.421875 C 13.513741 9.468675 13.456919 9.5157063 13.386719 9.5664062 C 13.320419 9.6171063 13.244003 9.66805 13.158203 9.71875 C 13.072403 9.76555 12.982272 9.812575 12.888672 9.859375 C 12.795072 9.902275 12.701022 9.9375437 12.607422 9.9648438 L 12.496094 9.671875 C 12.730094 9.5899751 12.939747 9.4880813 13.123047 9.3632812 C 13.306347 9.2345813 13.488569 9.0601969 13.667969 8.8417969 z "
     id="path4" />
</svg>

<svg xmlns="http://www.w3.org/2000/svg" viewBox="0 0 16 16">
 <path d="m 1.6 0 c -0.886 0 -1.6 0.713 -1.6 1.6 l 0 12.801 c 0 0.886 0.713 1.6 1.6 1.6 l 12.801 0 c 0.886 0 1.6 -0.713 1.6 -1.6 l 0 -12.801 c 0 -0.886 -0.713 -1.6 -1.6 -1.6 l -12.801 0 z m 2.02 4.805 c 0.336 0 0.653 0.028 0.953 0.082 c 0.306 0.054 0.573 0.144 0.801 0.27 c 0.228 0.126 0.409 0.294 0.541 0.504 c 0.138 0.204 0.207 0.46 0.207 0.766 c 0 0.336 -0.088 0.623 -0.262 0.863 c -0.168 0.234 -0.396 0.396 -0.684 0.486 c 0.18 0.042 0.346 0.102 0.496 0.18 c 0.15 0.078 0.281 0.181 0.395 0.307 c 0.114 0.12 0.202 0.269 0.262 0.449 c 0.066 0.174 0.1 0.385 0.1 0.631 c 0 0.588 -0.235 1.038 -0.703 1.35 c -0.468 0.306 -1.19 0.459 -2.168 0.459 c -0.102 0 -0.223 -0.006 -0.361 -0.018 c -0.132 -0.006 -0.27 -0.019 -0.414 -0.037 c -0.138 -0.012 -0.269 -0.027 -0.395 -0.045 c -0.126 -0.024 -0.234 -0.048 -0.324 -0.072 l 0 -6 c 0.108 -0.03 0.227 -0.054 0.359 -0.072 c 0.132 -0.024 0.266 -0.043 0.404 -0.055 c 0.144 -0.018 0.282 -0.029 0.414 -0.035 c 0.138 -0.006 0.265 -0.01 0.379 -0.01 z m 0 0.521 c -0.222 0 -0.41 0.008 -0.566 0.02 c -0.15 0.012 -0.277 0.027 -0.379 0.045 l 0 2.195 l 1.188 0 c 0.222 0 0.433 -0.015 0.631 -0.045 c 0.198 -0.036 0.37 -0.096 0.514 -0.18 c 0.15 -0.09 0.266 -0.208 0.35 -0.352 c 0.084 -0.15 0.127 -0.338 0.127 -0.566 c 0 -0.204 -0.045 -0.376 -0.135 -0.514 c -0.09 -0.144 -0.221 -0.262 -0.389 -0.352 c -0.162 -0.09 -0.356 -0.152 -0.584 -0.188 c -0.228 -0.042 -0.48 -0.064 -0.756 -0.064 z m 5.84 1.01 c 0.57 0 1.023 0.185 1.359 0.557 c 0.342 0.372 0.512 0.945 0.512 1.719 c 0 0.048 -0.002 0.097 -0.008 0.145 c 0 0.048 -0.004 0.093 -0.01 0.135 l -3.268 0 c 0.018 0.57 0.16 1.01 0.424 1.314 c 0.264 0.306 0.684 0.459 1.26 0.459 c 0.318 0 0.57 -0.03 0.756 -0.09 c 0.186 -0.06 0.322 -0.11 0.406 -0.152 l 0.107 0.504 c -0.084 0.048 -0.243 0.104 -0.477 0.17 c -0.228 0.066 -0.499 0.1 -0.811 0.1 c -0.408 0 -0.757 -0.06 -1.045 -0.18 c -0.288 -0.12 -0.525 -0.288 -0.711 -0.504 c -0.186 -0.216 -0.32 -0.472 -0.404 -0.766 c -0.084 -0.3 -0.127 -0.626 -0.127 -0.98 c 0 -0.408 0.058 -0.762 0.172 -1.063 c 0.12 -0.306 0.273 -0.562 0.459 -0.766 c 0.192 -0.204 0.408 -0.353 0.648 -0.449 c 0.246 -0.102 0.498 -0.152 0.756 -0.152 z m 0.008 0.521 c -0.21 0 -0.398 0.041 -0.566 0.125 c -0.162 0.084 -0.306 0.198 -0.432 0.342 c -0.12 0.138 -0.217 0.3 -0.289 0.486 c -0.066 0.186 -0.103 0.382 -0.115 0.586 l 2.664 0 c -0.012 -0.486 -0.128 -0.865 -0.344 -1.135 c -0.216 -0.27 -0.522 -0.404 -0.918 -0.404 z m -6.793 1.25 l 0 2.457 c 0.09 0.012 0.224 0.027 0.404 0.045 c 0.18 0.012 0.363 0.02 0.549 0.02 c 0.276 0 0.545 -0.019 0.803 -0.055 c 0.264 -0.036 0.493 -0.101 0.691 -0.197 c 0.198 -0.096 0.359 -0.228 0.479 -0.396 c 0.12 -0.168 0.18 -0.384 0.18 -0.648 c 0 -0.24 -0.043 -0.438 -0.127 -0.594 c -0.084 -0.162 -0.203 -0.289 -0.359 -0.379 c -0.156 -0.096 -0.348 -0.161 -0.576 -0.197 c -0.222 -0.036 -0.47 -0.055 -0.746 -0.055 l -1.297 0 z m 10.992 0.734 l 0.268 0 l 0 4.055 l -0.379 0 l 0 -3.475 c -0.043 0.047 -0.1 0.094 -0.17 0.145 c -0.066 0.051 -0.143 0.102 -0.229 0.152 c -0.086 0.047 -0.176 0.094 -0.27 0.141 c -0.094 0.043 -0.188 0.078 -0.281 0.105 l -0.111 -0.293 c 0.234 -0.082 0.444 -0.184 0.627 -0.309 c 0.183 -0.129 0.366 -0.303 0.545 -0.521 z" style="fill:#ececec;fill-opacity:1"/>
</svg>
